source/img/icon-twitter.svg

<svg width="17" height="14" viewBox="0 0 17 14" fill="none" xmlns="http://www.w3.org/2000/svg">
<path d="M17 1.65702C16.3748 1.93818 15.7026 2.1282 14.9972 2.21381C15.7171 1.7762 16.2699 1.0836 16.5303 0.258489C15.8565 0.663669 15.1104 0.957564 14.3156 1.11598C13.6797 0.429253 12.7733 0 11.7702 0C9.84399 0 8.28278 1.58229 8.28278 3.53421C8.28278 3.81132 8.31334 4.08115 8.37304 4.33966C5.47446 4.19246 2.90469 2.78497 1.18455 0.646903C0.884335 1.16866 0.712366 1.7757 0.712366 2.42352C0.712366 3.64988 1.32781 4.73148 2.26388 5.36553C1.69221 5.34741 1.15438 5.18836 0.684154 4.92345C0.683485 4.93834 0.68348 4.95302 0.68348 4.96781C0.68348 6.68053 1.88579 8.10868 3.48108 8.43358C3.18868 8.51437 2.88065 8.55709 2.56255 8.55709C2.33759 8.55709 2.11949 8.53552 1.90617 8.49408C2.35027 9.89816 3.63801 10.9201 5.1644 10.9487C3.96982 11.8968 2.46628 12.4616 0.832201 12.4616C0.55089 12.4616 0.273057 12.4448 0 12.4123C1.54405 13.4151 3.37699 14 5.34672 14C11.7614 14 15.2689 8.61468 15.2689 3.94383C15.2689 3.79067 15.2654 3.63855 15.2591 3.48698C15.9402 2.98827 16.5314 2.36595 16.9992 1.65705" fill="#5C5C50"/>
</svg>

<svg width="17" height="14" fill="none" xmlns="http://www.w3.org/2000/svg"><path d="M17 1.657a6.902 6.902 0 01-2.003.557A3.538 3.538 0 0016.53.258c-.674.406-1.42.7-2.214.858A3.461 3.461 0 0011.77 0C9.844 0 8.283 1.582 8.283 3.534c0 .277.03.547.09.806C5.474 4.192 2.905 2.785 1.185.647a3.552 3.552 0 00-.473 1.777c0 1.226.616 2.307 1.552 2.942a3.434 3.434 0 01-1.58-.443v.045c0 1.713 1.202 3.14 2.797 3.466a3.444 3.444 0 01-1.575.06c.444 1.404 1.732 2.426 3.258 2.455A6.942 6.942 0 010 12.412 9.78 9.78 0 005.347 14c6.414 0 9.922-5.385 9.922-10.056 0-.153-.004-.305-.01-.457A7.155 7.155 0 0017 1.657" fill="#5C5C50"/></svg>
